X: 20
T: Invercaul's Reel
%R: hornpipe, reel
B: "Scots Reel & Country Dances for the Year 1769", R.Bremner, ed. p.107 #2
F: http://digital.nls.uk/special-collections-of-printed-music/pageturner.cfm?id=104993891
Z: 2016 John Chambers <jc:trillian.mit.edu>
M: C|
L: 1/8
K: Ador
% - - - - - - - - - - - - - - - - - - - - - - - - - - - - -
V: 1
B |\
D/D/D EG TA>GEG | D/D/D E>G c2ce |\
dBgB TA>GEG | D/D/D E>G A2A :|
|: (B |\
c)>ABG TA>GE(B | c)Bcd efge |\
dBgB TA>GEG | D/D/D E>G A3 :|
% - - - - - - - - - - - - - - - - - - - - - - - - - - - - -
V: 2 clef=bass middle=d
   z | d2d2 e2e2 | d2d2 c2c2 | g2g2 a2a2 | d2e2 A2A :|
|: z | a2g2 e2e2 | c2c2 c2c2 | g2g2 a2a2 | d2e2 A2A :|
% - - - - - - - - - - Dance description - - - - - - - - - -
%%begintext align
%% Set across to the 2d Man and turn .|
%% your Partner do the same :|
%% gallop down the Middle up again and cast off .|.
%% right and left at Top :|:
%%endtext
%%sep 2 2 400


